X:1
T:Title
%%score { 1 | 2 }
L:1/8
Q:1/4=100
M:4/4
K:F
V:1 treble nm="Grand Piano"
V:2 bass 
V:1
 c3 =B d2 c2 | A3 A B2 A2 | [EG][EG][EG][EG] [Ec]2 [GB]2 | A6 z2 | c3 =B d2 c2 | A3 A [DB]2 [DG]2 | %6
w: H.~L.~Gilmour * * *||||||
 FFEF [EA]2 [EG]2 | [CF]6 z2 | [GB]3 [FA] [EG]4 | [Ec]3 [GB] A4 | ddcA [FA]3 [FG] | [EG]6 z2 | %12
w: ||||||
 A3 B c2 A2 | B3 c d2 B2 | A[FA][FA][CF] [EA]2 [EG]2 | [CF]6 z2 |] %16
w: ||||
V:2
 [F,A,F]3 [F,_A,F] [F,B,F]2 [F,=A,F]2 | [F,CF]3 [F,CF] [F,DF]2 [F,CF]2 | %2
 [C,C][C,C][C,C][C,C] [C,G,]2 [C,C]2 | [F,CF]6 z2 | [F,A,F]3 [F,_A,F] [F,B,F]2 [F,=A,F]2 | %5
 [F,CF]3 [F,C] [B,,F,]2 [B,,B,]2 | [C,A,C][C,A,C][C,G,C][C,A,C] [C,C]2 [C,B,]2 | [F,A,]6 z2 | %8
 [C,C]3 [C,C] [C,C]4 | [C,G,]3 [C,C][K:treble] [F,CF]4 | %10
 [B,F][B,F][A,CF][F,CF][K:bass] [D,D]3 [G,=B,] | [C,C]6 z2 | [F,CF]3 [F,G,F] [F,A,F]2 [F,_EF]2 | %13
 [B,DF]3 [A,CF] [B,F]2 [G,DG]2 | [CF][K:bass][C,C][C,C][C,A,] [C,C]2 [C,B,]2 | [F,A,]6 z2 |] %16

